!!!COM: Arnold (Franz Walter) Schoenberg [Schönberg]
!!!OTL: [T208B_Sch-w29p14m174-180]
**kern	**dynam	**kern	**dynam	**kern	**dynam	**kern	**dynam
*grp:A	*	*grp:B	*	*grp:B	*	*grp:B	*
*part4	*part4	*part3	*part3	*part2	*part2	*part1	*part1
*staff4	*	*staff3	*	*staff2	*	*staff1	*
*I"Violoncello	*	*I"Viola	*	*I"Violin II	*	*I"Violin I	*
*I'Vc.	*	*I'Vla.	*	*I'Vln. II	*	*I'Vln. I	*
*clefF4	*	*clefC3	*	*clefG2	*	*clefG2	*
*k[]	*	*k[]	*	*k[]	*	*k[]	*
*C:	*	*C:	*	*C:	*	*C:	*
*M4/4	*	*M4/4	*	*M4/4	*	*M4/4	*
*met(c|)	*	*met(c|)	*	*met(c|)	*	*met(c|)	*
!!LO:REH:t=174
=1	=1	=1	=1	=1	=1	=1	=1
!!LO:TX:B:t=etwas ruhiger, molto cantabile
!!LO:TX:B:t=a tempo
4r	.	1r	.	(8f#XL	.	(8ddnL	p
.	.	.	.	8d#X'>)	.	8bbn)	.
!LO:TX:t=H	!	!	!	!	!	!	!
(4GGn	p	.	.	(8d#	.	(8bb	.
.	.	.	.	8an'>J)	.	8ccnJ)	.
[2En	.	.	.	(8aL	.	(8ccL	.
.	.	.	.	8B-X'>)	<	8ffn)	<
.	.	.	.	(8B-	.	(8ff	.
.	.	.	.	8d-X'>J)	.	8a-XJ)	.
.	.	.	.	.	[	.	[
!!LO:REH:t=175
=2	=2	=2	=2	=2	=2	=2	=2
4E])	.	1r	.	4d-X~>	>	4a-X~>	>
(2D#X	.	.	.	(8cnL	]	(8ffnL/	]
.	.	.	.	8bn)/	.	8a-X)	.
.	.	.	.	(8b/	.	(8a-	.
.	<	.	.	8f#XJ)	.	8dnJ)	.
[4An	.	.	.	(8f#L	<	(8dL	.
.	.	.	.	8G)	.	8cc#X)/	.
.	[	.	.	.	[	.	.
!!LO:REH:t=176
=3	=3	=3	=3	=3	=3	=3	=3
4A])	>	1r	.	(8G	>	(8cc#X/	.
.	.	.	.	8enJ)	]	8bnJ)/	.
(4cn	]	.	.	(8anL	.	(8bnL	.
.	<	.	.	8e-X')	.	8gg#X')	.
2FFn)	[ >	.	.	(8e-	.	(8gg#	.
.	]	.	.	8b-X'J)/	.	8gn'J)\	.
.	.	.	.	(8b-L/	<	(8gL	<
.	.	.	.	8f#X')	.	8cc#X)/	.
!!LO:REH:t=177
=4	=4	=4	=4	=4	=4	=4	=4
2r	.	1r	.	(8f#X	.	(8cc#X/	.
.	.	.	.	.	[	.	.
.	.	.	.	8ddn'J)/	>	8enJ)	[
.	.	.	.	4dd~	.	4e~>	.
*clefC4	*	*	*	*	*	*	*
!	!LO:HP:a	!	!	!	!	!	!
(4f#X	<	.	.	(8GL	]	(8dddnL	<
!	!LO:HP:a	!	!	!	!	!	!
.	[ >	.	.	.	<	.	.
.	]	.	.	8b-X'>)/	.	8gg#X')	.
.	.	.	.	.	.	.	.
[4Bn	.	.	.	(8b-/	.	(8gg#	.
.	.	.	.	8en'>J)	.	8ccc#X'J)	.
.	.	.	.	.	[	.	[
!!LO:REH:t=178
=5	=5	=5	=5	=5	=5	=5	=5
2B])	.	1r	.	(8enL/	.	(8ccc#XL	>
.	.	.	.	8dd#X')	.	8ffn')	.
.	.	.	.	(8dd#	.	(8ff	.
.	.	.	.	8ccn'J)	.	8cccn'J)	]
(2b-X	.	.	.	(8BnL	<	(8ee-XL	<
.	.	.	.	8dn')	.	8g-X'<)	.
.	<	.	.	(8d	.	(8g-	.
.	.	.	.	8A-X'J)	.	8ffn'<J)	.
*clefF4	*	*	*	*	*	*	*
!!LO:REH:t=179
=6	=6	=6	=6	=6	=6	=6	=6
.	[	.	.	.	.	.	.
2D-X)	>	1r	.	(8A-XL	.	(8ffL	.
.	]	.	.	8gn'>)	.	8ccn'<)	.
.	.	.	.	(8g	.	(8cc	.
.	.	.	.	8en'>J)	[	8aan'<J)	[
(4A-X	.	.	.	(8gL	.	(8dd-XL	.
.	<	.	.	8en')	.	8bb-X')	.
[4dn	[ >	.	.	(8e	.	(8bb-	.
.	]	.	.	8ffn'J)	.	8an'<J)	.
!!LO:REH:t=180
=7	=7	=7	=7	=7	=7	=7	=7
2d])	.	2r	.	(8ffnL	>	(8anL	.
.	.	.	.	.	.	.	>
.	.	.	.	8ccn')	.	8ddd#X')	.
.	.	.	.	(8cc	.	(8ddd#	.
.	.	.	.	8bbn'J)	.	8ff#X'J)	.
.	.	.	.	.	] mf	.	] mf
2r	.	(8FL	mf <	(8ggnL	<	(8bb-XL	<
.	.	8cn	.	8een	.	8dd-X	.
.	.	8Bn	.	8an	.	8dn	.
.	.	8f#XJ)	[	8e-XJ)	[	8A-XJ)	[
=	=	=	=	=	=	=	=
*-	*-	*-	*-	*-	*-	*-	*-
!!!system-decoration: [(s1,s2,s3,s4)]
!!!RDF**kern: < = below
!!!RDF**kern: > = above
!!!EED:Jason Lee
!!!EEV:2021/10/15
